Newaita-dark/actions/22/folder-new.svg

<?xml version="1.0" encoding="UTF-8"?>
<svg xmlns="http://www.w3.org/2000/svg" xmlns:xlink="http://www.w3.org/1999/xlink" width="22pt" height="22pt" viewBox="0 0 22 22" version="1.1">
<g id="surface1">
<path style=" stroke:none;fill-rule:nonzero;fill:rgb(74.117649%,74.117649%,74.117649%);fill-opacity:1;" d="M 7.277344 1.992188 C 6.269531 1.992188 5.457031 2.800781 5.457031 3.808594 L 5.457031 5.628906 L 2.730469 5.628906 C 1.722656 5.628906 0.910156 6.441406 0.910156 7.449219 L 0.910156 18.363281 C 0.910156 19.371094 1.722656 20.183594 2.730469 20.183594 L 19.101562 20.183594 C 20.109375 20.183594 20.921875 19.371094 20.921875 18.363281 L 20.921875 9.722656 L 11.824219 9.722656 C 11.320312 9.722656 10.914062 9.316406 10.914062 8.8125 L 10.914062 5.628906 L 6.820312 5.628906 L 6.820312 4.265625 C 6.820312 3.761719 7.226562 3.355469 7.730469 3.355469 L 11.824219 3.355469 L 11.824219 1.992188 Z M 3.183594 6.992188 L 9.550781 6.992188 L 9.550781 9.269531 C 9.550781 10.277344 10.363281 11.085938 11.371094 11.085938 L 19.554688 11.085938 L 19.554688 17.910156 C 19.554688 18.414062 19.152344 18.820312 18.648438 18.820312 L 3.183594 18.820312 C 2.679688 18.820312 2.273438 18.414062 2.273438 17.910156 L 2.273438 7.902344 C 2.273438 7.398438 2.679688 6.992188 3.183594 6.992188 Z M 3.183594 6.992188 "/>
<path style=" stroke:none;fill-rule:nonzero;fill:rgb(14.901961%,65.098041%,60.392159%);fill-opacity:1;" d="M 13.644531 4.71875 L 19.101562 4.71875 C 19.476562 4.71875 19.785156 5.023438 19.785156 5.402344 C 19.785156 5.777344 19.476562 6.085938 19.101562 6.085938 L 13.644531 6.085938 C 13.265625 6.085938 12.960938 5.777344 12.960938 5.402344 C 12.960938 5.023438 13.265625 4.71875 13.644531 4.71875 Z M 13.644531 4.71875 "/>
<path style=" stroke:none;fill-rule:nonzero;fill:rgb(14.901961%,65.098041%,60.392159%);fill-opacity:1;" d="M 17.054688 2.671875 L 17.054688 8.128906 C 17.054688 8.507812 16.75 8.8125 16.371094 8.8125 C 15.996094 8.8125 15.691406 8.507812 15.691406 8.128906 L 15.691406 2.671875 C 15.691406 2.296875 15.996094 1.992188 16.371094 1.992188 C 16.75 1.992188 17.054688 2.296875 17.054688 2.671875 Z M 17.054688 2.671875 "/>
</g>
</svg>

<svg xmlns="http://www.w3.org/2000/svg" width="22pt" height="22pt" viewBox="0 0 22 22"><path d="M7.277 1.992c-1.007 0-1.82.809-1.82 1.817v1.82H2.73c-1.007 0-1.82.812-1.82 1.82v10.914c0 1.008.813 1.82 1.82 1.82h16.372c1.007 0 1.82-.812 1.82-1.82v-8.64h-9.098a.909.909 0 0 1-.91-.91V5.628H6.82V4.266c0-.504.407-.91.91-.91h4.094V1.991zm-4.093 5H9.55V9.27c0 1.007.812 1.816 1.82 1.816h8.184v6.824c0 .504-.403.91-.907.91H3.184a.909.909 0 0 1-.91-.91V7.902c0-.504.406-.91.91-.91zm0 0" fill="#bdbdbd"/><path d="M13.645 4.719h5.457a.684.684 0 0 1 0 1.367h-5.457a.684.684 0 0 1 0-1.367zm0 0" fill="#26a69a"/><path d="M17.055 2.672v5.457a.682.682 0 1 1-1.364 0V2.672a.681.681 0 1 1 1.363 0zm0 0" fill="#26a69a"/></svg>
